static/assets/img/icons/theme/files/share.svg

<svg height="24" viewBox="0 0 24 24" width="24" xmlns="http://www.w3.org/2000/svg"><g fill="none" fill-rule="evenodd"><path d="m0 0h24v24h-24z" opacity="0"/><g fill="#000"><path d="m15.1231569 19.0111815-7.28530596-4.1922095c.48207008-.4852783.84051472-1.0935161 1.02414762-1.7735271l7.23609614 4.2015541c-.4628209.4876942-.8040003 1.0919551-.9749378 1.7641825zm-7.36730051-9.91037442 7.32164191-4.31330561c.1394174.69829074.4606386 1.33098151.9122222 1.84663084l-7.12472298 4.33159289c-.19287075-.7225776-.58298478-1.36461725-1.10914113-1.86491812z" fill-rule="nonzero"/><circle cx="19" cy="4" opacity=".3" r="3"/><circle cx="19" cy="20" opacity=".3" r="3"/><circle cx="5" cy="12" opacity=".3" r="3"/></g></g></svg>

<svg width="24px" height="24px" viewBox="0 0 24 24" version="1.1" xmlns="http://www.w3.org/2000/svg" xmlns:xlink="http://www.w3.org/1999/xlink">
    <title>Icon For Share</title>
    <g stroke="none" stroke-width="1" fill="none" fill-rule="evenodd">
        <rect opacity="0" x="0" y="0" width="24" height="24"></rect>
        <path d="M15.1231569,19.0111815 L7.83785094,14.818972 C8.31992102,14.3336937 8.67836566,13.7254559 8.86199856,13.0454449 L16.0980947,17.246999 C15.6352738,17.7346932 15.2940944,18.3389541 15.1231569,19.0111815 Z M7.75585639,9.10080708 L15.0774983,4.78750147 C15.2169157,5.48579221 15.5381369,6.11848298 15.9897205,6.63413231 L8.86499752,10.9657252 C8.67212677,10.2431476 8.28201274,9.60110795 7.75585639,9.10080708 Z" fill="#000000" fill-rule="nonzero"></path>
        <circle fill="#000000" opacity="0.3" cx="19" cy="4" r="3"></circle>
        <circle fill="#000000" opacity="0.3" cx="19" cy="20" r="3"></circle>
        <circle fill="#000000" opacity="0.3" cx="5" cy="12" r="3"></circle>
    </g>
</svg>
